X:113
T:Soldies Joy, The
T:Soldiers Joy, The
S:John Moore's Book 2
Z:Transcribed by Steve Mansfield 05/2021
%%VWML: Moore2-4494-p86-0
F:http://www.vwml.org/record/Moore2/4494/p86
M:C
L:1/8
K:D
FG | AFDF AFDF | A2d2 d2cB | AFDF AFDF | G2E2 E2FG | 
AFDF AFDF | A2d2 d2g2 | fafd egec | d2d2 d2 :|
|: de | fefg fagf | edcd efge | fefg fagf | edcB A2ag | 
fefg fagf | edcd efge | fafd egec | d2d2 d2 :|

